X:1
T:The Triumph
T:The Triumph
T:Aird 1797
C:Aird 1797
L:1/8
M:2/2
K:A
V:1 treble 
V:1
 af |"A" eccA"E7" dBBG |"A" A2 [Aa]2"D" [Af]2 [Aa]2 |"A" eccA"E7" dBBG |"A" A2 c2 A2 af | %5
"A" eccA"E7" dBBG |"A" A2 [Aa]2"D" [Af]2 [Aa]2 |"A" eccA"E7" dBBG |"A" A2 c2 A2 z2 || %9
"E" B2 e2"A" c2 e2 |"E" B2 e2"A" c2 e2 |"E" B2 Bd"A" c2 ce |"E7" c2 B2 A2 z2 |"E" Be^de"A" cede | %14
"E" Be^de"A" cede |"E" B2 Bd"A" c2 ce |"E7" c2 B2 A2 z2 ||"A" c2 cd e2 c2 |"E7" B2 bc d2 B2 | %19
"A" c2 cd eagf |"E7" edcB A2 AB |"A" c2 cd"F#7" fedc |"Bm" B2 bc"E7" edcB |"A" c2 cd ea"D"fe | %24
"E7" edcB A2 |] %25

